**harm	**harte	**timestamp	**phrase	**leadinstrument	**kern
*M4/4	*M4/4	*	*	*	*
*C:	*C:	*	*	*	*C:
1r;	N	0	.	r	1r;
=1	=1	=1	=1	=1	=1
*>A2_intro	*>A2_intro	*>A2_intro	*>A2_intro	*>A2_intro	*>A2_intro
1r	N	0.488	newline	r	1r
=2	=2	=2	=2	=2	=2
1I	C:maj	2.626	newline	strings	1C 1e 1g
=3	=3	=3	=3	=3	=3
1I	C:maj	4.49	.	strings	1C 1e 1g
=4	=4	=4	=4	=4	=4
1vi	A:min	6.353	.	strings	1A 1cc 1ee
=5	=5	=5	=5	=5	=5
1vi	A:min	8.217	.	strings	1A 1cc 1ee
=6	=6	=6	=6	=6	=6
1IV7	F:maj7	10.08	newline	strings	1F 1a 1cc 1ee
=7	=7	=7	=7	=7	=7
1IV7	F:maj7	11.95	.	strings	1F 1a 1cc 1ee
=8	=8	=8	=8	=8	=8
1V	G:maj	13.82	.	strings	1G 1b 1dd
=9	=9	=9	=9	=9	=9
2iii	E:min	15.69	.	strings	2E 2g 2b
2V	G:maj	16.625	.	strings	2G 2b 2dd
=10	=10	=10	=10	=10	=10
*>B_chorus	*>B_chorus	*>B_chorus	*>B_chorus	*>B_chorus	*>B_chorus
2-VII	B-:maj	17.56	newline	voice	2B- 2dd 2ff
2vi	A:min	18.491	.	voice	2A 2cc 2ee
=11	=11	=11	=11	=11	=11
2-VI	A-:maj	19.422	.	voice	2A- 2cc 2ee-
2V	G:maj	20.353	.	voice	2G 2b 2dd
=12	=12	=12	=12	=12	=12
2IV	F:maj	21.285	.	voice	2F 2a 2cc
2iii7	E:min7	22.216	.	voice	2E 2g 2b 2dd
=13	=13	=13	=13	=13	=13
2ii7	D:min7	23.147	.	voice	2D 2f 2a 2cc
2ii7f	D:min7/4	24.078	.	voice	2D 2f 2a 2cc
=14	=14	=14	=14	=14	=14
2-VII	B-:maj	25.009	newline	voice	2B- 2dd 2ff
2vi	A:min	25.943	.	voice	2A 2cc 2ee
=15	=15	=15	=15	=15	=15
2-VI	A-:maj	26.878	.	voice	2A- 2cc 2ee-
2V	G:maj	27.812	.	voice	2G 2b 2dd
=16	=16	=16	=16	=16	=16
2IV	F:maj	28.747	.	voice	2F 2a 2cc
2iii7	E:min7	29.681	.	voice	2E 2g 2b 2dd
=17	=17	=17	=17	=17	=17
2ii7	D:min7	30.616	.	voice	2D 2f 2a 2cc
2ii7f	D:min7/4	31.55	.	voice	2D 2f 2a 2cc
=18	=18	=18	=18	=18	=18
*>A_verse	*>A_verse	*>A_verse	*>A_verse	*>A_verse	*>A_verse
1I	C:maj	32.485	newline	voice	1C 1e 1g
=19	=19	=19	=19	=19	=19
1I	C:maj	34.353	.	voice	1C 1e 1g
=20	=20	=20	=20	=20	=20
1vi	A:min	36.222	.	voice	1A 1cc 1ee
=21	=21	=21	=21	=21	=21
1vi	A:min	38.091	.	voice	1A 1cc 1ee
=22	=22	=22	=22	=22	=22
1IV7	F:maj7	39.96	newline	voice	1F 1a 1cc 1ee
=23	=23	=23	=23	=23	=23
1IV7	F:maj7	41.818	.	voice	1F 1a 1cc 1ee
=24	=24	=24	=24	=24	=24
1V	G:maj	43.676	.	voice	1G 1b 1dd
=25	=25	=25	=25	=25	=25
2iii	E:min	45.534	.	voice	2E 2g 2b
2V	G:maj	46.463	.	voice	2G 2b 2dd
=26	=26	=26	=26	=26	=26
1I	C:maj	47.392	newline	voice	1C 1e 1g
=27	=27	=27	=27	=27	=27
1I	C:maj	49.259	.	voice	1C 1e 1g
=28	=28	=28	=28	=28	=28
1vi	A:min	51.125	.	voice	1A 1cc 1ee
=29	=29	=29	=29	=29	=29
1vi	A:min	52.992	.	voice	1A 1cc 1ee
=30	=30	=30	=30	=30	=30
1IV7	F:maj7	54.859	newline	voice	1F 1a 1cc 1ee
=31	=31	=31	=31	=31	=31
1IV7	F:maj7	56.728	.	voice	1F 1a 1cc 1ee
=32	=32	=32	=32	=32	=32
1V	G:maj	58.597	.	voice	1G 1b 1dd
=33	=33	=33	=33	=33	=33
2iii	E:min	60.466	.	voice	2E 2g 2b
2V	G:maj	61.401	.	voice	2G 2b 2dd
=34	=34	=34	=34	=34	=34
*>A_verse	*>A_verse	*>A_verse	*>A_verse	*>A_verse	*>A_verse
1I	C:maj	62.336	newline	voice	1C 1e 1g
=35	=35	=35	=35	=35	=35
1I	C:maj	64.196	.	voice	1C 1e 1g
=36	=36	=36	=36	=36	=36
1vi	A:min	66.056	.	voice	1A 1cc 1ee
=37	=37	=37	=37	=37	=37
1vi	A:min	67.916	.	voice	1A 1cc 1ee
=38	=38	=38	=38	=38	=38
1IV7	F:maj7	69.776	newline	voice	1F 1a 1cc 1ee
=39	=39	=39	=39	=39	=39
1IV7	F:maj7	71.65	.	voice	1F 1a 1cc 1ee
=40	=40	=40	=40	=40	=40
1V	G:maj	73.523	.	voice	1G 1b 1dd
=41	=41	=41	=41	=41	=41
2iii	E:min	75.397	.	voice	2E 2g 2b
2V	G:maj	76.334	.	voice	2G 2b 2dd
=42	=42	=42	=42	=42	=42
1I	C:maj	77.271	newline	voice	1C 1e 1g
=43	=43	=43	=43	=43	=43
1I	C:maj	79.13	.	voice	1C 1e 1g
=44	=44	=44	=44	=44	=44
1vi	A:min	80.989	.	voice	1A 1cc 1ee
=45	=45	=45	=45	=45	=45
1vi	A:min	82.848	.	voice	1A 1cc 1ee
=46	=46	=46	=46	=46	=46
1IV7	F:maj7	84.706	newline	voice	1F 1a 1cc 1ee
=47	=47	=47	=47	=47	=47
1IV7	F:maj7	86.569	.	voice	1F 1a 1cc 1ee
=48	=48	=48	=48	=48	=48
1V	G:maj	88.431	.	voice	1G 1b 1dd
=49	=49	=49	=49	=49	=49
2iii	E:min	90.293	.	voice	2E 2g 2b
2V	G:maj	91.224	.	voice	2G 2b 2dd
=50	=50	=50	=50	=50	=50
*>B_chorus	*>B_chorus	*>B_chorus	*>B_chorus	*>B_chorus	*>B_chorus
2-VII	B-:maj	92.155	newline	voice	2B- 2dd 2ff
2vi	A:min	93.091	.	voice	2A 2cc 2ee
=51	=51	=51	=51	=51	=51
2-VI	A-:maj	94.026	.	voice	2A- 2cc 2ee-
2V	G:maj	94.962	.	voice	2G 2b 2dd
=52	=52	=52	=52	=52	=52
2IV	F:maj	95.897	.	voice	2F 2a 2cc
2iii7	E:min7	96.832	.	voice	2E 2g 2b 2dd
=53	=53	=53	=53	=53	=53
2ii7	D:min7	97.768	.	voice	2D 2f 2a 2cc
2ii7f	D:min7/4	98.703	.	voice	2D 2f 2a 2cc
=54	=54	=54	=54	=54	=54
2-VII	B-:maj	99.639	newline	voice	2B- 2dd 2ff
2vi	A:min	100.571	.	voice	2A 2cc 2ee
=55	=55	=55	=55	=55	=55
2-VI	A-:maj	101.504	.	voice	2A- 2cc 2ee-
2V	G:maj	102.436	.	voice	2G 2b 2dd
=56	=56	=56	=56	=56	=56
2IV	F:maj	103.368	.	voice	2F 2a 2cc
2iii7	E:min7	104.301	.	voice	2E 2g 2b 2dd
=57	=57	=57	=57	=57	=57
2ii7	D:min7	105.233	.	voice	2D 2f 2a 2cc
2ii7f	D:min7/4	106.166	.	voice	2D 2f 2a 2cc
=58	=58	=58	=58	=58	=58
*>A_instrumental	*>A_instrumental	*>A_instrumental	*>A_instrumental	*>A_instrumental	*>A_instrumental
1I	C:maj	107.098	newline	strings	1C 1e 1g
=59	=59	=59	=59	=59	=59
1I	C:maj	108.968	.	strings	1C 1e 1g
=60	=60	=60	=60	=60	=60
1vi	A:min	110.839	.	strings	1A 1cc 1ee
=61	=61	=61	=61	=61	=61
1vi	A:min	112.709	.	strings	1A 1cc 1ee
=62	=62	=62	=62	=62	=62
1IV7	F:maj7	114.58	newline	strings	1F 1a 1cc 1ee
=63	=63	=63	=63	=63	=63
1IV7	F:maj7	116.452	.	strings	1F 1a 1cc 1ee
=64	=64	=64	=64	=64	=64
1V	G:maj	118.324	.	strings	1G 1b 1dd
=65	=65	=65	=65	=65	=65
2iii	E:min	120.195	.	strings	2E 2g 2b
2V	G:maj	121.131	.	strings	2G 2b 2dd
=66	=66	=66	=66	=66	=66
1I	C:maj	122.067	newline	strings	1C 1e 1g
=67	=67	=67	=67	=67	=67
1I	C:maj	123.935	.	strings	1C 1e 1g
=68	=68	=68	=68	=68	=68
1vi	A:min	125.803	.	strings	1A 1cc 1ee
=69	=69	=69	=69	=69	=69
1vi	A:min	127.671	.	strings	1A 1cc 1ee
=70	=70	=70	=70	=70	=70
1IV7	F:maj7	129.539	newline	strings	1F 1a 1cc 1ee
=71	=71	=71	=71	=71	=71
1IV7	F:maj7	131.411	.	strings	1F 1a 1cc 1ee
=72	=72	=72	=72	=72	=72
1V	G:maj	133.284	.	strings	1G 1b 1dd
=73	=73	=73	=73	=73	=73
2iii	E:min	135.157	.	strings	2E 2g 2b
2V	G:maj	136.093	.	strings	2G 2b 2dd
=74	=74	=74	=74	=74	=74
*>A_verse	*>A_verse	*>A_verse	*>A_verse	*>A_verse	*>A_verse
1I	C:maj	137.03	newline	voice	1C 1e 1g
=75	=75	=75	=75	=75	=75
1I	C:maj	138.896	.	voice	1C 1e 1g
=76	=76	=76	=76	=76	=76
1vi	A:min	140.762	.	voice	1A 1cc 1ee
=77	=77	=77	=77	=77	=77
1vi	A:min	142.628	.	voice	1A 1cc 1ee
=78	=78	=78	=78	=78	=78
1IV7	F:maj7	144.494	newline	voice	1F 1a 1cc 1ee
=79	=79	=79	=79	=79	=79
1IV7	F:maj7	146.369	.	voice	1F 1a 1cc 1ee
=80	=80	=80	=80	=80	=80
1V	G:maj	148.244	.	voice	1G 1b 1dd
=81	=81	=81	=81	=81	=81
2iii	E:min	150.119	.	voice	2E 2g 2b
2V	G:maj	151.056	.	voice	2G 2b 2dd
=82	=82	=82	=82	=82	=82
1I	C:maj	151.994	newline	voice	1C 1e 1g
=83	=83	=83	=83	=83	=83
1I	C:maj	153.865	.	voice	1C 1e 1g
=84	=84	=84	=84	=84	=84
1vi	A:min	155.736	.	voice	1A 1cc 1ee
=85	=85	=85	=85	=85	=85
1vi	A:min	157.606	.	voice	1A 1cc 1ee
=86	=86	=86	=86	=86	=86
1IV7	F:maj7	159.477	newline	voice	1F 1a 1cc 1ee
=87	=87	=87	=87	=87	=87
1IV7	F:maj7	161.331	.	voice	1F 1a 1cc 1ee
=88	=88	=88	=88	=88	=88
1V	G:maj	163.185	.	voice	1G 1b 1dd
=89	=89	=89	=89	=89	=89
2iii	E:min	165.04	.	voice	2E 2g 2b
2V	G:maj	165.967	.	voice	2G 2b 2dd
=90	=90	=90	=90	=90	=90
*>B_chorus	*>B_chorus	*>B_chorus	*>B_chorus	*>B_chorus	*>B_chorus
2-VII	B-:maj	166.894	newline	voice	2B- 2dd 2ff
2vi	A:min	167.832	.	voice	2A 2cc 2ee
=91	=91	=91	=91	=91	=91
2-VI	A-:maj	168.771	.	voice	2A- 2cc 2ee-
2V	G:maj	169.709	.	voice	2G 2b 2dd
=92	=92	=92	=92	=92	=92
2IV	F:maj	170.648	.	voice	2F 2a 2cc
2iii7	E:min7	171.586	.	voice	2E 2g 2b 2dd
=93	=93	=93	=93	=93	=93
2ii7	D:min7	172.525	.	voice	2D 2f 2a 2cc
2ii7f	D:min7/4	173.463	.	voice	2D 2f 2a 2cc
=94	=94	=94	=94	=94	=94
2-VII	B-:maj	174.402	newline	voice	2B- 2dd 2ff
2vi	A:min	175.333	.	voice	2A 2cc 2ee
=95	=95	=95	=95	=95	=95
2-VI	A-:maj	176.265	.	voice	2A- 2cc 2ee-
2V	G:maj	177.197	.	voice	2G 2b 2dd
=96	=96	=96	=96	=96	=96
2IV	F:maj	178.129	.	voice	2F 2a 2cc
2iii7	E:min7	179.06	.	voice	2E 2g 2b 2dd
=97	=97	=97	=97	=97	=97
2ii7	D:min7	179.992	.	voice	2D 2f 2a 2cc
2ii7f	D:min7/4	180.924	.	voice	2D 2f 2a 2cc
=98	=98	=98	=98	=98	=98
*>A_instrumental	*>A_instrumental	*>A_instrumental	*>A_instrumental	*>A_instrumental	*>A_instrumental
1I	C:maj	181.856	newline	strings	1C 1e 1g
=99	=99	=99	=99	=99	=99
1I	C:maj	183.716	.	strings	1C 1e 1g
=100	=100	=100	=100	=100	=100
1vi	A:min	185.577	.	strings	1A 1cc 1ee
=101	=101	=101	=101	=101	=101
1vi	A:min	187.438	.	strings	1A 1cc 1ee
=102	=102	=102	=102	=102	=102
1IV7	F:maj7	189.298	newline	strings	1F 1a 1cc 1ee
=103	=103	=103	=103	=103	=103
1IV7	F:maj7	191.169	.	strings	1F 1a 1cc 1ee
=104	=104	=104	=104	=104	=104
1V	G:maj	193.04	.	strings	1G 1b 1dd
=105	=105	=105	=105	=105	=105
2iii	E:min	194.91	.	strings	2E 2g 2b
2V	G:maj	195.845	.	strings	2G 2b 2dd
=106	=106	=106	=106	=106	=106
*>_fadeout	*>_fadeout	*>_fadeout	*>_fadeout	*>_fadeout	*>_fadeout
1I	C:maj	196.781	newline	strings	1C 1e 1g
=107	=107	=107	=107	=107	=107
1I	C:maj	198.646	.	strings	1C 1e 1g
=108	=108	=108	=108	=108	=108
1vi	A:min	200.512	.	strings	1A 1cc 1ee
=109	=109	=109	=109	=109	=109
1vi	A:min	202.377	.	strings	1A 1cc 1ee
=110	=110	=110	=110	=110	=110
1IV7	F:maj7	204.243	newline	strings	1F 1a 1cc 1ee
=111	=111	=111	=111	=111	=111
1IV7	F:maj7	206.002	.	strings	1F 1a 1cc 1ee
=112	=112	=112	=112	=112	=112
1V	G:maj	207.761	.	strings	1G 1b 1dd
=113	=113	=113	=113	=113	=113
2iii	E:min	209.519	.	strings	2E 2g 2b
2V	G:maj	210.399	.	strings	2G 2b 2dd
1r;	N	211.278	.	r	1r;
1r;	N	215.745	.	r	1r;
*-	*-	*-	*-	*-	*-
!!!OTL: Heaven Must Have Sent You
!!!COC: Bonnie Pointer
!!!BillboardChartDate: 1979/11/03
!!!BillboardPeak: 11
!!!BillboardWeeksOnChart: 23
!!!SampleTargetRank: 29
!!!SampleActualRank: 28
!!!SampleID#: 1232
!!!RDF**harmony: **recip + pitch class of root + harmonic quality
!!!RDF**harte: Chris Harte's syntax, used by MIREX
!!!RDF**phrase: newline = linebreak in original McGill transcription
!!!RDF**timestamp: McGill audio timestamp in seconds
!!!RDF**leadinstrument: original McGill primary instrumentation annotation
!!!RDT: 2017/01/12/
!!!ENC: Nathaniel Condit-Schultz
!!!EST: Awating manual error checking and editing.
